assets/subscriptionNew/Alarm.svg

<svg width="20" height="21" viewBox="0 0 20 21" fill="none" xmlns="http://www.w3.org/2000/svg">
<path d="M9.9999 0.00976562C4.48151 0.00976562 0.00683594 4.48444 0.00683594 10.0028C0.00683594 15.5212 4.48151 19.9959 9.9999 19.9959C15.5183 19.9959 19.993 15.5212 19.993 10.0028C19.993 4.48444 15.5183 0.00976562 9.9999 0.00976562ZM14.7119 14.7148C14.5218 14.905 14.2733 14.9994 14.0249 14.9994C13.7764 14.9994 13.528 14.905 13.3379 14.7148L9.31287 10.6898C9.04223 10.4192 8.95617 10.0153 9.0908 9.65862L10.6175 5.63364C10.8077 5.1326 11.3684 4.87999 11.8708 5.07014C12.3732 5.26029 12.6245 5.82101 12.4343 6.32344L11.1311 9.75994L14.7119 13.3408C15.0908 13.7197 15.0908 14.3359 14.7119 14.7148Z" fill="url(#paint0_linear_273_242)"/>
<defs>
<linearGradient id="paint0_linear_273_242" x1="19.6591" y1="15.3666" x2="0.00683491" y2="3.88236" gradientUnits="userSpaceOnUse">
<stop stop-color="#0575E6"/>
<stop offset="1" stop-color="#FF0CF5"/>
</linearGradient>
</defs>
</svg>

<svg xmlns="http://www.w3.org/2000/svg" width="20" height="21" fill="none" xmlns:v="https://vecta.io/nano"><path d="M10 .01C4.482.01.007 4.484.007 10.003S4.482 19.996 10 19.996s9.993-4.475 9.993-9.993S15.518.01 10 .01zm4.712 14.705c-.19.19-.439.285-.687.285s-.497-.094-.687-.285L9.313 10.69c-.271-.271-.357-.675-.222-1.031l1.527-4.025a.97.97 0 1 1 1.817.69L11.131 9.76l3.581 3.581c.379.379.379.995 0 1.374z" fill="url(#A)"/><defs><linearGradient id="A" x1="19.659" y1="15.367" x2=".007" y2="3.882" gradientUnits="userSpaceOnUse"><stop stop-color="#0575e6"/><stop offset="1" stop-color="#ff0cf5"/></linearGradient></defs></svg>
